; generated by Slic3r 1.1.7 on 2015-01-10 at 20:48:05

; perimeters extrusion width = 0.40mm
; infill extrusion width = 0.42mm
; solid infill extrusion width = 0.42mm
; top infill extrusion width = 0.42mm

G21 ; set units to millimeters
M190 S60 ; wait for bed temperature to be reached
G28 ; home all axes
G28 Z0 ; extra z home for dual-height endstops
G1 Y20 Z0; move y ready for wiping, with nozzle close to bed
M109 S193; heat up nozzle ready for wiping
G92 E0 ; reset extruder position (needed for changing filament)
G1 E0.2; prime extrusion 0.2mm
G1 Y70 E1.2 F10000 ; 1st Fast wipe
G1 Y120 E2.2 F1000 ; 2nd slow wipe
G90 ; use absolute coordinates
G92 E0
M82 ; use absolute distances for extrusion
M106 S255
G1 F1800.000 E-0.50000
G92 E0
G1 Z0.300 F3600.000
G1 X74.382 Y86.093 F3600.000
G1 E0.50000 F1800.000
G1 X75.100 Y85.657 E0.51427 F720.000
G1 X75.889 Y85.348 E0.52866
G1 X76.715 Y85.183 E0.54295
G1 X77.250 Y85.150 E0.55205
G1 X124.000 Y85.150 E1.34571
G1 X125.638 Y85.544 E1.37431 F720.000
G1 X126.918 Y86.641 E1.40292
G1 X127.600 Y88.750 E1.44055
G1 X127.600 Y108.750 E1.78008
G1 X127.206 Y110.388 E1.80869
G1 X126.109 Y111.668 E1.83730
G1 X124.335 Y112.334 E1.86946
G1 X97.785 Y114.817 E2.32215
G1 X97.250 Y114.850 E2.33126
G1 X76.936 Y114.836 E2.67612
G1 X76.101 Y114.708 E2.69045
G1 X75.301 Y114.437 E2.70480
G1 X74.564 Y114.034 E2.71907
G1 X73.901 Y113.503 E2.73348
G1 X73.344 Y112.868 E2.74782
G1 X72.907 Y112.151 E2.76209
G1 X72.598 Y111.361 E2.77648
G1 X72.433 Y110.535 E2.79077
G1 X72.400 Y110.000 E2.79988
G1 X72.414 Y89.686 E3.14474
G1 X72.542 Y88.851 E3.15907
G1 X72.813 Y88.051 E3.17342
G1 X73.220 Y87.307 E3.18782
G1 X73.747 Y86.651 E3.20210
G1 X74.337 Y86.133 E3.21543
G1 X74.611 Y86.421 F3600.000
G1 X75.269 Y86.019 E3.22852 F720.000
G1 X75.993 Y85.735 E3.24172
G1 X76.750 Y85.582 E3.25483
G1 X77.250 Y85.550 E3.26334
G1 X124.000 Y85.550 E4.05699
G1 X125.538 Y85.944 E4.08394 F720.000
G1 X126.697 Y87.028 E4.11089
G1 X127.200 Y88.750 E4.14134
G1 X127.200 Y108.750 E4.48087
G1 X126.806 Y110.288 E4.50782
G1 X125.722 Y111.447 E4.53477
G1 X124.298 Y111.936 E4.56033
G1 X97.750 Y114.418 E5.01299
G1 X97.250 Y114.450 E5.02149
G1 X76.971 Y114.438 E5.36576
G1 X76.205 Y114.322 E5.37891
G1 X75.470 Y114.075 E5.39207
G1 X74.793 Y113.706 E5.40517
G1 X74.184 Y113.220 E5.41839
G1 X73.671 Y112.639 E5.43155
G1 X73.269 Y111.981 E5.44464
G1 X72.985 Y111.257 E5.45785
G1 X72.832 Y110.500 E5.47096
G1 X72.800 Y110.000 E5.47946
G1 X72.812 Y89.721 E5.82373
G1 X72.928 Y88.955 E5.83688
G1 X73.175 Y88.220 E5.85004
G1 X73.548 Y87.537 E5.86326
G1 X74.030 Y86.934 E5.87636
G1 X74.566 Y86.461 E5.88850
G1 X74.841 Y86.749 F3600.000
G1 X75.439 Y86.381 E5.90042 F720.000
G1 X76.097 Y86.121 E5.91243
G1 X76.785 Y85.980 E5.92437
G1 X77.250 Y85.950 E5.93227
G1 X124.000 Y85.950 E6.72592
G1 X125.430 Y86.343 E6.75110 F720.000
G1 X126.459 Y87.411 E6.77628
G1 X126.800 Y88.750 E6.79974
G1 X126.800 Y108.750 E7.13927
G1 X126.407 Y110.180 E7.16445
G1 X125.339 Y111.209 E7.18963
G1 X124.261 Y111.538 E7.20876
G1 X97.715 Y114.020 E7.66139
G1 X97.250 Y114.050 E7.66929
G1 X77.006 Y114.039 E8.01296
G1 X76.308 Y113.936 E8.02494
G1 X75.639 Y113.712 E8.03692
G1 X75.022 Y113.378 E8.04883
G1 X74.467 Y112.937 E8.06086
G1 X73.999 Y112.410 E8.07284
G1 X73.631 Y111.812 E8.08475
G1 X73.371 Y111.153 E8.09677
G1 X73.230 Y110.465 E8.10871
G1 X73.200 Y110.000 E8.11661
G1 X73.211 Y89.756 E8.46028
G1 X73.314 Y89.058 E8.47226
G1 X73.538 Y88.389 E8.48423
G1 X73.876 Y87.766 E8.49626
G1 X74.313 Y87.217 E8.50818
G1 X74.796 Y86.789 E8.51914
G1 X75.070 Y87.076 F3600.000
G1 X75.608 Y86.744 E8.52988 F720.000
G1 X76.200 Y86.507 E8.54071
G1 X76.821 Y86.378 E8.55147
G1 X77.250 Y86.350 E8.55877
G1 X124.000 Y86.350 E9.35242
G1 X125.314 Y86.742 E9.37570 F720.000
G1 X126.199 Y87.789 E9.39897
G1 X126.400 Y88.750 E9.41564
G1 X126.400 Y108.750 E9.75517
G1 X126.008 Y110.064 E9.77845
G1 X124.961 Y110.949 E9.80173
G1 X124.223 Y111.140 E9.81466
G1 X97.250 Y113.650 E10.27456
G1 X77.041 Y113.641 E10.61764
G1 X76.412 Y113.549 E10.62843
G1 X75.808 Y113.350 E10.63922
G1 X75.251 Y113.050 E10.64996
G1 X74.749 Y112.655 E10.66081
G1 X74.326 Y112.180 E10.67160
G1 X73.994 Y111.642 E10.68234
G1 X73.757 Y111.050 E10.69317
G1 X73.628 Y110.429 E10.70392
G1 X73.600 Y110.000 E10.71123
G1 X73.609 Y89.791 E11.05431
G1 X73.701 Y89.162 E11.06510
G1 X73.900 Y88.558 E11.07589
G1 X74.203 Y87.996 E11.08674
G1 X74.595 Y87.499 E11.09747
G1 X75.025 Y87.116 E11.10725
G1 F1800.000 E10.60725
G92 E0
G1 X76.126 Y89.989 F3600.000
G1 E0.50000 F1800.000
G1 X76.142 Y89.805 E0.50314 F360.000
G1 X76.190 Y89.626 E0.50629
G1 X76.271 Y89.447 E0.50961
G1 X76.388 Y89.277 E0.51312
G1 X76.519 Y89.146 E0.51627
G1 X76.688 Y89.026 E0.51978
G1 X76.865 Y88.943 E0.52311
G1 X77.055 Y88.892 E0.52644
G1 X77.255 Y88.875 E0.52986
G1 X97.244 Y88.875 E0.86920
G1 X97.445 Y88.892 E0.87262
G1 X97.635 Y88.943 E0.87595
G1 X97.812 Y89.026 E0.87928
G1 X97.973 Y89.138 E0.88261
G1 X98.118 Y89.286 E0.88612
G1 X98.224 Y89.438 E0.88926
G1 X98.303 Y89.605 E0.89241
G1 X98.358 Y89.805 E0.89592
G1 X98.375 Y90.005 E0.89934
G1 X98.375 Y109.995 E1.23868
G1 X98.358 Y110.195 E1.24211
G1 X98.307 Y110.385 E1.24543
G1 X98.224 Y110.562 E1.24876
G1 X98.112 Y110.723 E1.25209
G1 X97.964 Y110.868 E1.25560
G1 X97.812 Y110.974 E1.25875
G1 X97.645 Y111.053 E1.26189
G1 X97.445 Y111.108 E1.26540
G1 X97.245 Y111.125 E1.26882
G1 X77.255 Y111.125 E1.60817
G1 X77.055 Y111.108 E1.61159
G1 X76.865 Y111.057 E1.61492
G1 X76.688 Y110.974 E1.61825
G1 X76.527 Y110.862 E1.62157
G1 X76.382 Y110.714 E1.62508
G1 X76.276 Y110.562 E1.62823
G1 X76.197 Y110.395 E1.63137
G1 X76.142 Y110.195 E1.63488
G1 X76.125 Y109.995 E1.63830
G1 X76.126 Y89.989 E1.97793
G1 F1800.000 E1.47793
G92 E0
G1 X123.400 Y108.150 F3600.000
G1 E0.50000 F1800.000
G1 X104.600 Y108.150 E0.81916 F360.000
G1 X104.600 Y89.350 E1.13832
G1 X123.400 Y89.350 E1.45748
G1 X123.400 Y108.090 E1.77562
G1 X123.800 Y108.550 F3600.000
G1 X104.200 Y108.550 E2.10836 F360.000
G1 X104.200 Y88.950 E2.44110
G1 X123.800 Y88.950 E2.77383
G1 X123.800 Y108.490 E3.10556
G1 X123.454 Y108.350 F3600.000
G1 F1800.000 E2.60556
G92 E0
G1 X104.874 Y107.836 F3600.000
G1 E0.50000 F1800.000
G1 X104.914 Y107.876 E0.50101 F720.000
G1 X105.511 Y107.876 E0.51162
G1 X104.874 Y107.239 E0.52764
G1 X104.874 Y106.642 E0.53825
G1 X106.108 Y107.876 E0.56928
G1 X106.706 Y107.876 E0.57990
G1 X104.874 Y106.044 E0.62594
G1 X104.874 Y105.447 E0.63656
G1 X107.303 Y107.876 E0.69761
G1 X107.900 Y107.876 E0.70822
G1 X104.874 Y104.850 E0.78429
G1 X104.874 Y104.253 E0.79490
G1 X108.497 Y107.876 E0.88598
G1 X109.094 Y107.876 E0.89660
G1 X104.874 Y103.656 E1.00269
G1 X104.874 Y103.059 E1.01330
G1 X109.691 Y107.876 E1.13440
G1 X110.288 Y107.876 E1.14502
G1 X104.874 Y102.462 E1.28113
G1 X104.874 Y101.865 E1.29175
G1 X110.885 Y107.876 E1.44287
G1 X111.482 Y107.876 E1.45349
G1 X104.874 Y101.268 E1.61963
G1 X104.874 Y100.671 E1.63024
G1 X112.079 Y107.876 E1.81139
G1 X112.677 Y107.876 E1.82201
G1 X104.874 Y100.073 E2.01817
G1 X104.874 Y99.476 E2.02878
G1 X113.274 Y107.876 E2.23996
G1 X113.871 Y107.876 E2.25057
G1 X104.874 Y98.879 E2.47676
G1 X104.874 Y98.282 E2.48738
G1 X114.468 Y107.876 E2.72857
G1 X115.065 Y107.876 E2.73919
G1 X104.874 Y97.685 E2.99540
G1 X104.874 Y97.088 E3.00601
G1 X115.662 Y107.876 E3.27724
G1 X116.259 Y107.876 E3.28785
G1 X104.874 Y96.491 E3.57408
G1 X104.874 Y95.894 E3.58470
G1 X116.856 Y107.876 E3.88595
G1 X117.453 Y107.876 E3.89656
G1 X104.874 Y95.297 E4.21282
G1 X104.874 Y94.700 E4.22343
G1 X118.050 Y107.876 E4.55470
G1 X118.648 Y107.876 E4.56532
G1 X104.874 Y94.102 E4.91160
G1 X104.874 Y93.505 E4.92222
G1 X119.245 Y107.876 E5.28351
G1 X119.842 Y107.876 E5.29413
G1 X104.874 Y92.908 E5.67043
G1 X104.874 Y92.311 E5.68105
G1 X120.439 Y107.876 E6.07237
G1 X121.036 Y107.876 E6.08298
G1 X104.874 Y91.714 E6.48931
G1 X104.874 Y91.117 E6.49993
G1 X121.633 Y107.876 E6.92127
G1 X122.230 Y107.876 E6.93188
G1 X104.874 Y90.520 E7.36824
G1 X104.874 Y89.923 E7.37885
G1 X122.827 Y107.876 E7.83022
G1 X123.126 Y107.577 E7.83773
G1 X105.173 Y89.624 E8.28909
G1 X105.770 Y89.624 E8.29971
G1 X123.126 Y106.980 E8.73606
G1 X123.126 Y106.383 E8.74668
G1 X106.367 Y89.624 E9.16802
G1 X106.964 Y89.624 E9.17863
G1 X123.126 Y105.786 E9.58496
G1 X123.126 Y105.189 E9.59558
G1 X107.561 Y89.624 E9.98690
G1 X108.158 Y89.624 E9.99751
G1 X123.126 Y104.592 E10.37382
G1 X123.126 Y103.995 E10.38443
G1 X108.755 Y89.624 E10.74573
G1 X109.352 Y89.624 E10.75634
G1 X123.126 Y103.398 E11.10263
G1 X123.126 Y102.800 E11.11324
G1 X109.950 Y89.624 E11.44451
G1 X110.547 Y89.624 E11.45513
G1 X123.126 Y102.203 E11.77138
G1 X123.126 Y101.606 E11.78200
G1 X111.144 Y89.624 E12.08325
G1 X111.741 Y89.624 E12.09386
G1 X123.126 Y101.009 E12.38009
G1 X123.126 Y100.412 E12.39071
G1 X112.338 Y89.624 E12.66193
G1 X112.935 Y89.624 E12.67255
G1 X123.126 Y99.815 E12.92876
G1 X123.126 Y99.218 E12.93937
G1 X113.532 Y89.624 E13.18057
G1 X114.129 Y89.624 E13.19119
G1 X123.126 Y98.621 E13.41737
G1 X123.126 Y98.024 E13.42799
G1 X114.726 Y89.624 E13.63916
G1 X115.323 Y89.624 E13.64978
G1 X123.126 Y97.427 E13.84594
G1 X123.126 Y96.829 E13.85655
G1 X115.921 Y89.624 E14.03770
G1 X116.518 Y89.624 E14.04832
G1 X123.126 Y96.232 E14.21446
G1 X123.126 Y95.635 E14.22507
G1 X117.115 Y89.624 E14.37620
G1 X117.712 Y89.624 E14.38681
G1 X123.126 Y95.038 E14.52293
G1 X123.126 Y94.441 E14.53354
G1 X118.309 Y89.624 E14.65464
G1 X118.906 Y89.624 E14.66526
G1 X123.126 Y93.844 E14.77135
G1 X123.126 Y93.247 E14.78196
G1 X119.503 Y89.624 E14.87304
G1 X120.100 Y89.624 E14.88366
G1 X123.126 Y92.650 E14.95972
G1 X123.126 Y92.053 E14.97034
G1 X120.697 Y89.624 E15.03139
G1 X121.294 Y89.624 E15.04200
G1 X123.126 Y91.456 E15.08805
G1 X123.126 Y90.858 E15.09866
G1 X121.892 Y89.624 E15.12969
G1 X122.489 Y89.624 E15.14031
G1 X123.126 Y90.261 E15.15632
G1 X123.126 Y89.664 E15.16694
G1 X123.086 Y89.624 E15.16795
G1 F1800.000 E14.66795
G92 E0
G1 Z0.600 F3600.000
G1 X76.126 Y89.989 F3600.000
G1 E0.50000 F1800.000
G1 X76.145 Y89.794 E0.50333 F1200.000
G1 X76.193 Y89.615 E0.50647
G1 X76.271 Y89.447 E0.50961
G1 X76.388 Y89.277 E0.51312
G1 X76.519 Y89.146 E0.51627
G1 X76.688 Y89.026 E0.51978
G1 X76.865 Y88.943 E0.52311
G1 X77.055 Y88.892 E0.52644
G1 X77.255 Y88.875 E0.52986
G1 X97.245 Y88.875 E0.86920
G1 X97.445 Y88.892 E0.87262
G1 X97.635 Y88.943 E0.87595
G1 X97.812 Y89.026 E0.87928
G1 X97.973 Y89.138 E0.88261
G1 X98.118 Y89.286 E0.88612
G1 X98.224 Y89.438 E0.88926
G1 X98.303 Y89.605 E0.89241
G1 X98.358 Y89.805 E0.89592
G1 X98.375 Y90.005 E0.89934
G1 X98.375 Y109.995 E1.23869
G1 X98.358 Y110.195 E1.24211
G1 X98.307 Y110.385 E1.24543
G1 X98.224 Y110.562 E1.24876
G1 X98.112 Y110.723 E1.25209
G1 X97.964 Y110.868 E1.25560
G1 X97.812 Y110.974 E1.25875
G1 X97.645 Y111.053 E1.26189
G1 X97.445 Y111.108 E1.26540
G1 X97.245 Y111.125 E1.26882
G1 X77.255 Y111.125 E1.60817
G1 X77.055 Y111.108 E1.61159
G1 X76.865 Y111.057 E1.61492
G1 X76.688 Y110.974 E1.61825
G1 X76.527 Y110.862 E1.62157
G1 X76.382 Y110.714 E1.62508
G1 X76.276 Y110.562 E1.62823
G1 X76.197 Y110.395 E1.63137
G1 X76.142 Y110.195 E1.63488
G1 X76.125 Y109.995 E1.63830
G1 X76.126 Y89.989 E1.97793
G1 F1800.000 E1.47793
G92 E0
G1 X123.400 Y108.150 F3600.000
G1 E0.50000 F1800.000
G1 X104.600 Y108.150 E0.81916 F1200.000
G1 X104.600 Y89.650 E1.13322
G1 X104.600 Y89.350 E1.13832
G1 X123.400 Y89.350 E1.45748
G1 X123.400 Y108.090 E1.77562
G1 X123.800 Y108.550 F3600.000
G1 X104.200 Y108.550 E2.10836 F1200.000
G1 X104.200 Y89.650 E2.42921
G1 X104.200 Y88.950 E2.44110
G1 X123.800 Y88.950 E2.77383
G1 X123.800 Y108.490 E3.10556
G1 X123.454 Y108.350 F3600.000
G1 X123.126 Y107.836 F3600.000
G1 X123.086 Y107.876 E3.10656 F2400.000
G1 X122.489 Y107.876 E3.11718
G1 X123.126 Y107.239 E3.13319
G1 X123.126 Y106.642 E3.14381
G1 X121.892 Y107.876 E3.17484
G1 X121.294 Y107.876 E3.18545
G1 X123.126 Y106.044 E3.23150
G1 X123.126 Y105.447 E3.24211
G1 X120.697 Y107.876 E3.30317
G1 X120.100 Y107.876 E3.31378
G1 X123.126 Y104.850 E3.38985
G1 X123.126 Y104.253 E3.40046
G1 X119.503 Y107.876 E3.49154
G1 X118.906 Y107.876 E3.50215
G1 X123.126 Y103.656 E3.60824
G1 X123.126 Y103.059 E3.61886
G1 X118.309 Y107.876 E3.73996
G1 X117.712 Y107.876 E3.75058
G1 X123.126 Y102.462 E3.88669
G1 X123.126 Y101.865 E3.89731
G1 X117.115 Y107.876 E4.04843
G1 X116.518 Y107.876 E4.05905
G1 X123.126 Y101.268 E4.22518
G1 X123.126 Y100.671 E4.23580
G1 X115.921 Y107.876 E4.41695
G1 X115.323 Y107.876 E4.42756
G1 X123.126 Y100.073 E4.62373
G1 X123.126 Y99.476 E4.63434
G1 X114.726 Y107.876 E4.84552
G1 X114.129 Y107.876 E4.85613
G1 X123.126 Y98.879 E5.08232
G1 X123.126 Y98.282 E5.09293
G1 X113.532 Y107.876 E5.33413
G1 X112.935 Y107.876 E5.34475
G1 X123.126 Y97.685 E5.60096
G1 X123.126 Y97.088 E5.61157
G1 X112.338 Y107.876 E5.88279
G1 X111.741 Y107.876 E5.89341
G1 X123.126 Y96.491 E6.17964
G1 X123.126 Y95.894 E6.19026
G1 X111.144 Y107.876 E6.49150
G1 X110.547 Y107.876 E6.50212
G1 X123.126 Y95.297 E6.81838
G1 X123.126 Y94.700 E6.82899
G1 X109.950 Y107.876 E7.16026
G1 X109.352 Y107.876 E7.17088
G1 X123.126 Y94.102 E7.51716
G1 X123.126 Y93.505 E7.52777
G1 X108.755 Y107.876 E7.88907
G1 X108.158 Y107.876 E7.89968
G1 X123.126 Y92.908 E8.27599
G1 X123.126 Y92.311 E8.28660
G1 X107.561 Y107.876 E8.67792
G1 X106.964 Y107.876 E8.68854
G1 X123.126 Y91.714 E9.09487
G1 X123.126 Y91.117 E9.10548
G1 X106.367 Y107.876 E9.52683
G1 X105.770 Y107.876 E9.53744
G1 X123.126 Y90.520 E9.97380
G1 X123.126 Y89.923 E9.98441
G1 X105.173 Y107.876 E10.43578
G1 X104.874 Y107.577 E10.44328
G1 X122.827 Y89.624 E10.89465
G1 X122.230 Y89.624 E10.90526
G1 X104.874 Y106.980 E11.34162
G1 X104.874 Y106.383 E11.35223
G1 X121.633 Y89.624 E11.77358
G1 X121.036 Y89.624 E11.78419
G1 X104.874 Y105.786 E12.19052
G1 X104.874 Y105.189 E12.20114
G1 X120.439 Y89.624 E12.59245
G1 X119.842 Y89.624 E12.60307
G1 X104.874 Y104.592 E12.97938
G1 X104.874 Y103.995 E12.98999
G1 X119.245 Y89.624 E13.35128
G1 X118.648 Y89.624 E13.36190
G1 X104.874 Y103.398 E13.70818
G1 X104.874 Y102.800 E13.71880
G1 X118.050 Y89.624 E14.05007
G1 X117.453 Y89.624 E14.06068
G1 X104.874 Y102.203 E14.37694
G1 X104.874 Y101.606 E14.38755
G1 X116.856 Y89.624 E14.68880
G1 X116.259 Y89.624 E14.69942
G1 X104.874 Y101.009 E14.98565
G1 X104.874 Y100.412 E14.99627
G1 X115.662 Y89.624 E15.26749
G1 X115.065 Y89.624 E15.27810
G1 X104.874 Y99.815 E15.53431
G1 X104.874 Y99.218 E15.54493
G1 X114.468 Y89.624 E15.78613
G1 X113.871 Y89.624 E15.79674
G1 X104.874 Y98.621 E16.02293
G1 X104.874 Y98.024 E16.03354
G1 X113.274 Y89.624 E16.24472
G1 X112.677 Y89.624 E16.25533
G1 X104.874 Y97.427 E16.45149
G1 X104.874 Y96.829 E16.46211
G1 X112.079 Y89.624 E16.64326
G1 X111.482 Y89.624 E16.65387
G1 X104.874 Y96.232 E16.82001
G1 X104.874 Y95.635 E16.83063
G1 X110.885 Y89.624 E16.98175
G1 X110.288 Y89.624 E16.99237
G1 X104.874 Y95.038 E17.12848
G1 X104.874 Y94.441 E17.13910
G1 X109.691 Y89.624 E17.26020
G1 X109.094 Y89.624 E17.27081
G1 X104.874 Y93.844 E17.37690
G1 X104.874 Y93.247 E17.38752
G1 X108.497 Y89.624 E17.47859
G1 X107.900 Y89.624 E17.48921
G1 X104.874 Y92.650 E17.56528
G1 X104.874 Y92.053 E17.57589
G1 X107.303 Y89.624 E17.63694
G1 X106.706 Y89.624 E17.64756
G1 X104.874 Y91.456 E17.69360
G1 X104.874 Y90.858 E17.70422
G1 X106.108 Y89.624 E17.73525
G1 X105.511 Y89.624 E17.74586
G1 X104.874 Y90.261 E17.76188
G1 X104.874 Y89.664 E17.77249
G1 X104.914 Y89.624 E17.77350
G1 F1800.000 E17.27350
G92 E0
G1 Z0.900 F3600.000
G1 X76.126 Y89.995 F3600.000
G1 E0.50000 F1800.000
G1 X76.142 Y89.805 E0.50324 F1200.000
G1 X76.197 Y89.605 E0.50675
G1 X76.276 Y89.438 E0.50989
G1 X76.382 Y89.286 E0.51303
G1 X76.519 Y89.146 E0.51636
G1 X76.688 Y89.026 E0.51987
G1 X76.865 Y88.943 E0.52320
G1 X77.055 Y88.892 E0.52653
G1 X77.255 Y88.875 E0.52995
G1 X97.245 Y88.875 E0.86930
G1 X97.445 Y88.892 E0.87272
G1 X97.635 Y88.943 E0.87605
G1 X97.812 Y89.026 E0.87937
G1 X97.973 Y89.138 E0.88270
G1 X98.118 Y89.286 E0.88621
G1 X98.224 Y89.438 E0.88936
G1 X98.303 Y89.605 E0.89250
G1 X98.358 Y89.805 E0.89601
G1 X98.375 Y90.005 E0.89943
G1 X98.375 Y109.995 E1.23878
G1 X98.358 Y110.195 E1.24220
G1 X98.307 Y110.385 E1.24553
